X: 39819
T: Theresa Kubiak's
R: reel
M: 4/4
K: Adorian
|:Bd|eAAG A2eA|~A2ea dABA|BGGF G2dG|~G2dG e2dB|
eAAG A2eA|~A2ea dABF|GABc dege|dBAB A2:|
|:ag|a2ag ageg|dega bgag|eg~g2 dg~g2|e/f/edg e/f/edg|
a2ag ageg|dega b2ag|dggf g2eg|dBAB A2:|

